X: 1
T: Mole in the Ground
C: Trad.
O: from Bascom Lunsford
R: song, reel
S: Fiddle Hell Online 2021-11-06 Singing while playing fiddle workshop by Enion Pelta
Z: 2021 John Chambers <jc:trillian.mit.edu>
M: 4/4
L: 1/8
K: A
P: Fiddle:
[| "A"ceef c>c BA | "A"A2ce      a4 | "D"aaaf a2fe | "A"e2c2 zAAA |
 | "A"c2BA A>A AF | "A"A2FE "F#m"F4 | "A"ceef c>c "E7"BA | "A"A8 |]
